X: 10142
M: C|
L: 1/8
K: A
((3EFG) |\
f)>(da)>(f e)>(cA)>(c | (3B)cB (3AGF E2 ((3EFG) |
f)>(ag)>(f e)>(dc)>B | A2 {g}a2 A2 :|
|: c2 |\
(B>c)d>e (d>B)G>B | (A>c)e>g a2e>a |\
(g>f)d>f (e>c)A>c | (3BcB (3AGF E2 c2 |
(B>c)d>e (d>B)G>B | (A>c)e>g a2e>g |\
(3fba (3gfe (3^dcB (3AGF | (3EGB (3egb e'2 :|


